!!!COM: Palestrina, Giovanni Perluigi da
!!!OPR: Missa De Beata Marie Virginis (II)
!!!OMD: Credo
!!!OTL: Et resurrexit
**kern	**kern	**kern	**kern	**kern
*Ibass	*Itenor	*Itenor	*Icalto	*Icant
!Bassus	!Tenor 2	!Tenor 1	!Altus	!Cantus
*clefF4	*clefGv2	*clefGv2	*clefG2	*clefG2
*k[]	*k[]	*k[]	*k[]	*k[]
*G:mix	*G:mix	*G:mix	*G:mix	*G:mix
*M4/2	*M4/2	*M4/2	*M4/2	*M4/2
=65	=65	=65	=65	=65
0r	1d	0r	1r	0r
.	2c	.	1g	.
.	2B	.	.	.
=66	=66	=66	=66	=66
0r	4A	0r	2f	1r
.	4B	.	.	.
.	4c	.	2e	.
.	4A	.	.	.
.	4B	.	4d	1dd
.	4c	.	4e	.
.	4d	.	4f	.
.	4e	.	4g	.
=67	=67	=67	=67	=67
1r	2f	0r	2a	2cc
.	2g	.	2.g	2b
2r	1f	.	.	2.a
.	.	.	4f	.
2d	.	.	2f	.
.	.	.	.	4b
=68	=68	=68	=68	=68
2c	1g	2r	2e	2cc
2B	.	2d	2g	1dd
1A	1r	2e	2a	.
.	.	2f#	2a	2cc
=69	=69	=69	=69	=69
2G	0r	2.g	2.b	2r
2.G	.	.	.	2dd
.	.	4f	4a	.
.	.	2e	2g	2ee
4G	.	.	.	.
2F#	.	[2d	2a	2ff#
=70	=70	=70	=70	=70
1E	2r	2d]	1g	1.gg
.	2G	2c#	.	.
1D	2A	1d	2r	.
.	2B	.	2d	2ff
=71	=71	=71	=71	=71
0r	2c	1r	2e	2ee
.	2d	.	2f#	1dd
.	1e	2r	1g	.
.	.	[2g	.	2cc#
=72	=72	=72	=72	=72
2r	1d	2g]	2a	1dd
2d	.	4f#	2a	.
.	.	4e	.	.
1d	1r	1f#	1a	2r
.	.	.	.	2dd
=73	=73	=73	=73	=73
1G	2r	1g	1b	1dd
.	2g	.	.	.
2.c	1g	1e	2cc	2g
.	.	.	4c	[2cc
4B	.	.	4d	.
=74	=74	=74	=74	=74
2A	2c	0r	4e	2cc]
.	.	.	4c	.
2G	1g	.	2d	2b
1A	.	.	1c	2a
.	2f	.	.	[2cc
=75	=75	=75	=75	=75
1G	2e	2r	1g	2cc]
.	4d	2d	.	4b
.	4c	.	.	4a
1G	4B	1d	2r	4b
.	4A	.	.	4cc
.	[2B	.	2g	2dd
=76	=76	=76	=76	=76
1E	4B]	1G	1g	2ee
.	4G	.	.	.
.	2.g	.	.	2b
2C	.	2.c	2e	4cc
.	4f	.	.	4b
2C	2e	.	[2a	4a
.	.	4B	.	4g
=77	=77	=77	=77	=77
0D	0d	2A	2a]	2f#
.	.	2B	1g	2g
.	.	1A	.	1a
.	.	.	2f#	.
=78	=78	=78	=78	=78
[0G	[0d	[0G	[0g	[0b
=79	=79	=79	=79	=79
0G]	0d]	0G]	0g]	0b]
*-	*-	*-	*-	*-
!!!CDT: 1525/^1526/-1594/2/2
!!!OCY: Italia
!!!AGN: Mass (Paraphrase)
!!!AST: renaissance, vocal
!!!ASW: Gregorian Mass
!!!PWK: Masses, Book Mantuan I
!!!RNB: Cadence finals: D
!!!YOR: Le Opere Complete, v. 18, p. 126
!!!YOO: Rome, Italy: Fratelli Scalera
!!!END: 1992//
!!!EED: John Miller
!!!YEC: Copyright 2000, John Miller
!!!YEN: United States of America
!!!YEM: Rights to all derivative electronic formats reserved.
!!!YEM: Refer to licensing agreement for further details.
!!!YEM: This file must be accompanied by the licensing agreement.
!!!YEM: A copy of the licensing agreement may be found at http://www.music-cog.ohio-state.edu/HumdrumDatabases/Palestrina/license.txt
!!!EMD: converted to Humdrum by Bret Aarden
